docs/.gitbook/assets/icon-layers-16@dark.svg

<svg width="32" height="32" viewBox="0 0 16 16" fill="none" xmlns="http://www.w3.org/2000/svg">
<rect x="0" y="0" width="16" height="16" fill="#181c1f"/>
<path fill-rule="evenodd" clip-rule="evenodd" d="M7.57827 1.12981C7.83279 0.956732 8.16721 0.956732 8.42173 1.12981L14.6717 5.3798C14.8771 5.51944 15 5.75167 15 6C15 6.24833 14.8771 6.48056 14.6717 6.62019L12.6426 8.00001L14.6717 9.37982C14.8771 9.51946 15 9.75169 15 10C15 10.2483 14.8771 10.4806 14.6717 10.6202L8.42173 14.8702C8.16721 15.0433 7.83279 15.0433 7.57827 14.8702L1.32827 10.6202C1.12292 10.4806 1 10.2483 1 10C1 9.75169 1.12292 9.51946 1.32827 9.37982L3.3574 8.00001L1.32827 6.62019C1.12292 6.48056 1 6.24833 1 6C1 5.75167 1.12292 5.51944 1.32827 5.3798L7.57827 1.12981ZM4.69119 8.90698L3.08378 10L8 13.343L12.9162 10L11.3088 8.90698L8.42173 10.8702C8.16721 11.0433 7.83279 11.0433 7.57827 10.8702L4.69119 8.90698ZM3.08378 6L8 9.34303L12.9162 6L8 2.65697L3.08378 6Z" fill="#fff"/>
</svg>

<svg xmlns="http://www.w3.org/2000/svg" width="32" height="32" fill="none" viewBox="0 0 16 16"><path fill="#181c1f" d="M0 0h16v16H0z"/><path fill="#fff" fill-rule="evenodd" d="M7.578 1.13a.75.75 0 0 1 .844 0l6.25 4.25a.75.75 0 0 1 0 1.24L12.642 8l2.03 1.38a.75.75 0 0 1 0 1.24l-6.25 4.25a.75.75 0 0 1-.844 0l-6.25-4.25a.75.75 0 0 1 0-1.24L3.358 8l-2.03-1.38a.75.75 0 0 1 0-1.24zM4.691 8.907 3.084 10 8 13.343 12.916 10 11.31 8.907 8.422 10.87a.75.75 0 0 1-.844 0zM3.084 6 8 9.343 12.916 6 8 2.657z" clip-rule="evenodd"/></svg>
